assets/img/dapp.svg

<svg width="62" height="64" viewBox="0 0 62 64" fill="none" xmlns="http://www.w3.org/2000/svg">
<g clip-path="url(#clip0)">
<path d="M48.1706 9.25283C42.8204 6.21844 37.6207 3.26952 32.421 0.320607C31.5401 -0.170879 30.6806 -0.085403 29.8212 0.406083C20.3241 5.8338 10.8271 11.2401 1.35162 16.6679C1.05081 16.8388 0.771486 17.3303 0.771486 17.6722C0.75 28.5062 0.728514 39.3189 0.792973 50.1316C0.792973 50.8368 1.33013 51.8411 1.91027 52.183C7.02404 55.1961 12.2023 58.0809 17.3805 61.0084C17.4235 61.0298 17.5094 61.0084 17.7458 61.0084C17.7458 60.6024 17.7458 60.175 17.7458 59.769C17.7458 49.1273 17.7673 38.5069 17.7243 27.8652C17.7243 26.8608 18.0896 26.3907 18.906 25.942C28.4245 20.557 37.9215 15.1507 47.4185 9.74431C47.6119 9.63747 47.8268 9.48788 48.1706 9.25283Z" fill="#151512"/>
<path d="M39.7046 64.0005C39.7046 63.509 39.7046 63.103 39.7046 62.7183C39.7046 55.282 39.7261 47.8456 39.6831 40.3878C39.6831 39.4262 39.9624 38.9133 40.8219 38.4432C47.4397 34.7464 54.0146 30.9855 60.6109 27.2459C60.9332 27.0749 61.234 26.8826 61.6208 26.6476C61.4489 26.498 61.3414 26.3698 61.191 26.2843C56.8937 23.8269 52.575 21.3908 48.2992 18.8906C47.0315 18.1427 45.9357 18.1214 44.625 18.8693C38.222 22.5661 31.7761 26.1988 25.3302 29.8315C24.6211 30.2162 24.4062 30.6649 24.4062 31.4556C24.4277 38.8706 24.4277 46.2643 24.4062 53.6793C24.4062 54.7905 24.75 55.6666 25.7384 56.2222C30.1861 58.7437 34.6123 61.2439 39.06 63.7654C39.2104 63.8509 39.4038 63.8936 39.7046 64.0005Z" fill="#151512"/>
<path d="M61.7495 51.5856C56.5713 48.6367 51.5864 45.816 46.4727 42.9098C46.4727 48.7435 46.4727 54.3849 46.4727 60.2614C51.5435 57.3766 56.5283 54.5559 61.7495 51.5856Z" fill="#151512"/>
</g>
<defs>
<clipPath id="clip0">
<rect width="61" height="64" fill="white" transform="translate(0.75)"/>
</clipPath>
</defs>
</svg>

<svg width="62" height="64" fill="none" xmlns="http://www.w3.org/2000/svg"><g clip-path="url(#clip0)" fill="#151512"><path d="M48.17 9.253L32.422.32c-.88-.492-1.74-.406-2.6.085-9.497 5.428-18.994 10.834-28.47 16.262-.3.17-.58.662-.58 1.004C.75 28.506.73 39.32.793 50.132c0 .705.537 1.71 1.117 2.051 5.114 3.013 10.292 5.898 15.47 8.825.044.022.13 0 .366 0V59.77c0-10.642.021-21.262-.022-31.904 0-1.004.366-1.474 1.182-1.923A12267.74 12267.74 0 0047.419 9.744c.193-.107.408-.256.752-.491z"/><path d="M39.705 64v-1.282c0-7.436.021-14.872-.022-22.33 0-.962.28-1.475 1.139-1.945 6.618-3.697 13.193-7.457 19.789-11.197.322-.171.623-.363 1.01-.598-.172-.15-.28-.278-.43-.364-4.297-2.457-8.616-4.893-12.892-7.393-1.267-.748-2.363-.77-3.674-.022-6.403 3.697-12.849 7.33-19.295 10.962-.709.385-.924.834-.924 1.625.022 7.415.022 14.808 0 22.223 0 1.111.344 1.988 1.332 2.543 4.448 2.522 8.874 5.022 13.322 7.543.15.086.344.129.645.236z"/><path d="M61.75 51.586c-5.179-2.95-10.164-5.77-15.277-8.676v17.35c5.07-2.884 10.055-5.705 15.276-8.675z"/></g><defs><clipPath id="clip0"><path fill="#fff" transform="translate(.75)" d="M0 0h61v64H0z"/></clipPath></defs></svg>
